X: 62
T: Polonäs efter Johan August Ericsson
S: efter Johan August Ericsson
B: SMUS - katalog M19 bild 20 (nr 62)
O: Södermanland
R: Polonäs
Z: Nils L, 2011-11-18
M: 3/4
L: 1/16
K: D
defd A4 F4 | G2GF E2EG F2ED | A4 B4 c4 | d2df B2Bd c2BA |
defd A4 F4 | G2GF E2G2 F2ED | DEFG ABcd efge | {/g}fedc d4 D4 ::
f2fg a4 e4 | e2ef a2c2 d4 | f2g2 a2fd B4 | d2e2 d2cB A4 |
defd A4 F4 | G2GF E2EG F2ED | DEFG ABcd efge | {/g}fedc d4 D4 :|

